iOS/DuckDuckGo/Assets.xcassets/Passwords-Import-128.imageset/Passwords-Import-128.svg

<svg width="128" height="96" viewBox="0 0 128 96" fill="none" xmlns="http://www.w3.org/2000/svg">
<path opacity="0.2" d="M105.629 38.2L107.171 37.8C107.457 37.7429 107.743 37.4571 107.8 37.1714L108.2 35.6286C108.314 35.2286 108.657 35 109 35C109.4 35 109.743 35.2857 109.8 35.6286L110.2 37.1714C110.257 37.4571 110.543 37.7429 110.829 37.8L112.371 38.2C112.771 38.3143 113 38.6571 113 39C113 39.4 112.714 39.7429 112.371 39.8L110.829 40.2C110.543 40.2571 110.257 40.5429 110.2 40.8286L109.8 42.3714C109.686 42.7714 109.343 43 109 43C108.6 43 108.257 42.7143 108.2 42.3714L107.8 40.8286C107.743 40.5429 107.457 40.2571 107.171 40.2L105.629 39.8C105.229 39.6857 105 39.3429 105 39C105 38.6 105.286 38.2571 105.629 38.2Z" fill="#888888"/>
<path opacity="0.2" d="M15.9428 31.8L18.2571 31.2C18.6857 31.1143 19.1143 30.6857 19.2 30.2571L19.8 27.9429C19.9714 27.3429 20.4857 27 21 27C21.6 27 22.1143 27.4286 22.2 27.9429L22.8 30.2571C22.8857 30.6857 23.3143 31.1143 23.7429 31.2L26.0572 31.8C26.6572 31.9714 27 32.4857 27 33C27 33.6 26.5714 34.1143 26.0572 34.2L23.7429 34.8C23.3143 34.8857 22.8857 35.3143 22.8 35.7429L22.2 38.0571C22.0286 38.6571 21.5143 39 21 39C20.4 39 19.8857 38.5714 19.8 38.0571L19.2 35.7429C19.1143 35.3143 18.6857 34.8857 18.2571 34.8L15.9428 34.2C15.3428 34.0286 15 33.5143 15 33C15 32.4 15.4286 31.8857 15.9428 31.8Z" fill="#888888"/>
<path opacity="0.2" d="M0.628557 53.2L2.17142 52.8C2.45714 52.7429 2.74287 52.4571 2.80001 52.1714L3.19999 50.6286C3.31427 50.2286 3.65714 50 4 50C4.4 50 4.74287 50.2857 4.80001 50.6286L5.19999 52.1714C5.25713 52.4571 5.54286 52.7429 5.82858 52.8L7.37144 53.2C7.77144 53.3143 8 53.6571 8 54C8 54.4 7.7143 54.7429 7.37144 54.8L5.82858 55.2C5.54286 55.2571 5.25713 55.5429 5.19999 55.8286L4.80001 57.3714C4.68573 57.7714 4.34286 58 4 58C3.6 58 3.25713 57.7143 3.19999 57.3714L2.80001 55.8286C2.74287 55.5429 2.45714 55.2571 2.17142 55.2L0.628557 54.8C0.228557 54.6857 0 54.3429 0 54C0 53.6 0.2857 53.2571 0.628557 53.2Z" fill="#888888"/>
<path opacity="0.2" d="M126.5 52C125.675 52 125 51.325 125 50.5C125 49.675 125.675 49 126.5 49C127.325 49 128 49.675 128 50.5C128 51.325 127.325 52 126.5 52Z" fill="#888888"/>
<path opacity="0.2" d="M23 70C21.9 70 21 69.1 21 68C21 66.9 21.9 66 23 66C24.1 66 25 66.9 25 68C25 69.1 24.1 70 23 70Z" fill="#888888"/>
<path fill-rule="evenodd" clip-rule="evenodd" d="M85.2251 34.0619C85.2251 44.0688 77.1128 52.1811 67.1059 52.1811C65.2005 52.1811 63.3638 51.887 61.6387 51.3417L58.6126 54.3678H52.2865V59.5632C52.2865 60.123 51.8327 60.5768 51.2729 60.5768H45.9604V68.1543C45.9604 68.7141 45.5066 69.1679 44.9468 69.1679H32V56.2813L49.5848 38.6965C49.1945 37.2172 48.9866 35.6638 48.9866 34.0619C48.9866 24.0549 57.0989 15.9426 67.1059 15.9426C77.1128 15.9426 85.2251 24.0549 85.2251 34.0619ZM72.202 34.6281C75.3292 34.6281 77.8642 32.093 77.8642 28.9658C77.8642 25.8386 75.3292 23.3035 72.202 23.3035C69.0748 23.3035 66.5397 25.8386 66.5397 28.9658C66.5397 32.093 69.0748 34.6281 72.202 34.6281Z" fill="#E2A412"/>
<path fill-rule="evenodd" clip-rule="evenodd" d="M88.2251 34.0619C88.2251 44.0688 80.1128 52.1811 70.1059 52.1811C68.2005 52.1811 66.3638 51.887 64.6387 51.3417L61.6126 54.3678H55.2865V59.5632C55.2865 60.123 54.8327 60.5768 54.2729 60.5768H48.9604V68.1543C48.9604 68.7141 48.5066 69.1679 47.9468 69.1679H35V56.2813L52.5848 38.6965C52.1945 37.2172 51.9866 35.6638 51.9866 34.0619C51.9866 24.0549 60.0989 15.9426 70.1059 15.9426C80.1128 15.9426 88.2251 24.0549 88.2251 34.0619ZM75.202 34.6281C78.3292 34.6281 80.8642 32.093 80.8642 28.9658C80.8642 25.8386 78.3292 23.3035 75.202 23.3035C72.0748 23.3035 69.5397 25.8386 69.5397 28.9658C69.5397 32.093 72.0748 34.6281 75.202 34.6281Z" fill="#F9BE1A"/>
<path fill-rule="evenodd" clip-rule="evenodd" d="M84.1768 51.1977C90.4215 46.7738 93.1402 38.536 90.2863 31.055C86.9038 22.1881 76.9736 17.7421 68.1066 21.1247C59.2397 24.5072 54.7937 34.4374 58.1763 43.3043C58.7178 44.7237 59.427 46.0297 60.2727 47.2085L50.6353 68.7342L54.9912 80.1527H57.7249C58.1103 80.1527 58.4624 79.9341 58.6333 79.5887L64.4572 67.8214L67.4695 66.6723C67.7868 65.234 68.2589 63.8538 68.8674 62.5501L67.9638 60.1814L70.9736 59.0333C72.0913 57.5388 73.4131 56.2059 74.8978 55.0758L75.2277 54.3389C75.4956 54.3233 75.7638 54.3013 76.0322 54.2729C78.4363 52.6933 81.2013 51.6181 84.1768 51.1977ZM82.0413 29.0276C83.0983 31.7986 81.7089 34.9017 78.938 35.9588C76.1671 37.0158 73.0639 35.6265 72.0069 32.8556C70.9498 30.0846 72.3392 26.9815 75.1101 25.9244C77.881 24.8674 80.9842 26.2567 82.0413 29.0276Z" fill="#E2A412"/>
<path fill-rule="evenodd" clip-rule="evenodd" d="M67 71V73.2385C67 75.3124 65.7197 77.171 63.7821 77.9101L57.9033 80.1528L53.5474 68.7342L63.1848 47.2086C62.3391 46.0298 61.6298 44.7237 61.0884 43.3043C57.7058 34.4374 62.1518 24.5072 71.0187 21.1246C79.8856 17.7421 89.8158 22.1881 93.1984 31.055C95.8039 37.8851 93.7645 45.3461 88.6375 49.9594C87.8426 50.6746 86.7824 50.9804 85.7165 51.0657C75.4174 51.8899 67 60.3755 67 71ZM84.9535 29.0277C86.0105 31.7986 84.6212 34.9018 81.8503 35.9588C79.0794 37.0159 75.9762 35.6265 74.9191 32.8556C73.8621 30.0847 75.2514 26.9815 78.0223 25.9244C80.7933 24.8674 83.8964 26.2567 84.9535 29.0277Z" fill="#FFCC33"/>
<path fill-rule="evenodd" clip-rule="evenodd" d="M77.0369 26.4205C77.9027 27.3414 79.2725 28 81 28C84.0618 28 86 25.931 86 24C86 22.1902 84.2974 20.2591 81.5629 20.0239C80.0495 18.7873 78.3326 17.7906 76.4699 17.0918C77.832 16.3897 79.3959 16 81 16C85.6702 16 90 19.3036 90 24C90 28.6964 85.6702 32 81 32C78.6447 32 76.376 31.1597 74.7056 29.7243C75.0183 28.3861 75.8393 27.1867 77.0369 26.4205Z" fill="#999999"/>
<path fill-rule="evenodd" clip-rule="evenodd" d="M85 31.1612C83.7689 31.7033 82.3997 32 81 32C78.6447 32 76.376 31.1597 74.7056 29.7243C75.0183 28.3861 75.8393 27.1867 77.0369 26.4205C77.9027 27.3414 79.2725 28 81 28C82.7522 28 84.1364 27.3224 85 26.3808V31.1612Z" fill="url(#paint0_linear_6806_1191)"/>
<path d="M108.501 59C108.799 59 109.096 59.12 109.324 59.3539C109.778 59.8219 109.778 60.5837 109.324 61.0517L106.991 63.4512C106.536 63.9192 105.796 63.9192 105.341 63.4512C104.886 62.9833 104.886 62.2215 105.341 61.7535L107.673 59.3539C107.901 59.12 108.198 59 108.496 59H108.501Z" fill="#CCCCCC"/>
<path d="M107.335 69.7982H110.834C111.475 69.7982 112 70.3381 112 70.998C112 71.6579 111.475 72.1978 110.834 72.1978H107.335C106.694 72.1978 106.169 71.6579 106.169 70.998C106.169 70.3381 106.694 69.7982 107.335 69.7982Z" fill="#CCCCCC"/>
<path d="M105.353 78.5518C105.58 78.3178 105.878 78.1978 106.175 78.1978H106.181C106.478 78.1978 106.776 78.3178 107.003 78.5518L109.336 80.9513C109.79 81.4193 109.79 82.1811 109.336 82.6491C108.881 83.117 108.14 83.117 107.685 82.6491L105.353 80.2495C104.898 79.7815 104.898 79.0197 105.353 78.5518Z" fill="#CCCCCC"/>
<path d="M87 87C95.8366 87 103 79.8366 103 71C103 62.1634 95.8366 55 87 55C78.1634 55 71 62.1634 71 71C71 79.8366 78.1634 87 87 87Z" fill="#557FF3"/>
<path fill-rule="evenodd" clip-rule="evenodd" d="M96 73C96 73.5523 95.5523 74 95 74L86.0223 74C85.6062 74 85.3722 74.4785 85.6276 74.807L87.8752 77.6967C88.2185 78.138 88.1332 78.7751 87.6858 79.1106L85.2862 80.9103C84.8498 81.2376 84.2316 81.1548 83.8968 80.7242L77.4657 72.453C76.8448 71.5837 76.8448 70.416 77.4657 69.5468L83.8968 61.2758C84.2316 60.8452 84.8498 60.7623 85.2862 61.0896L87.6858 62.8894C88.1332 63.2249 88.2185 63.862 87.8752 64.3033L85.6276 67.193C85.3722 67.5215 85.6062 68 86.0223 68L95 68C95.5523 68 96 68.4477 96 69L96 73Z" fill="white"/>
<defs>
<linearGradient id="paint0_linear_6806_1191" x1="78" y1="29" x2="84" y2="29" gradientUnits="userSpaceOnUse">
<stop stop-color="#5F5F5F"/>
<stop offset="1" stop-color="#999999" stop-opacity="0"/>
</linearGradient>
</defs>
</svg>

<svg fill="none" viewBox="0 0 128 96" xmlns="http://www.w3.org/2000/svg">
  <path fill="#888" d="m105.629 38.2 1.542-.4a.88.88 0 0 0 .629-.629l.4-1.543A.84.84 0 0 1 109 35c.4 0 .743.286.8.628l.4 1.543a.88.88 0 0 0 .629.629l1.542.4c.4.114.629.457.629.8 0 .4-.286.743-.629.8l-1.542.4a.88.88 0 0 0-.629.628l-.4 1.543a.84.84 0 0 1-.8.629c-.4 0-.743-.286-.8-.629l-.4-1.543a.88.88 0 0 0-.629-.628l-1.542-.4A.84.84 0 0 1 105 39c0-.4.286-.743.629-.8m-89.686-6.4 2.314-.6c.429-.086.857-.514.943-.943l.6-2.314c.171-.6.686-.943 1.2-.943.6 0 1.114.428 1.2.943l.6 2.314c.086.429.514.857.943.943l2.314.6c.6.171.943.686.943 1.2 0 .6-.429 1.114-.943 1.2l-2.314.6c-.429.086-.857.514-.943.943l-.6 2.314c-.171.6-.686.943-1.2.943-.6 0-1.114-.429-1.2-.943l-.6-2.314c-.086-.429-.514-.857-.943-.943l-2.314-.6c-.6-.172-.943-.686-.943-1.2 0-.6.429-1.114.943-1.2M.629 53.2l1.542-.4a.88.88 0 0 0 .629-.629l.4-1.543A.84.84 0 0 1 4 50c.4 0 .743.286.8.628l.4 1.543a.88.88 0 0 0 .629.629l1.542.4c.4.114.629.457.629.8 0 .4-.286.743-.629.8l-1.542.4a.88.88 0 0 0-.629.628l-.4 1.543A.84.84 0 0 1 4 58c-.4 0-.743-.286-.8-.629l-.4-1.543a.88.88 0 0 0-.629-.628L.63 54.8A.84.84 0 0 1 0 54c0-.4.286-.743.629-.8M126.5 52c-.825 0-1.5-.675-1.5-1.5s.675-1.5 1.5-1.5 1.5.675 1.5 1.5-.675 1.5-1.5 1.5M23 70c-1.1 0-2-.9-2-2s.9-2 2-2 2 .9 2 2-.9 2-2 2" opacity=".2"/>
  <path fill="#e2a412" fill-rule="evenodd" d="M85.225 34.062c0 10.007-8.112 18.12-18.12 18.12a18.1 18.1 0 0 1-5.466-.84l-3.026 3.026h-6.327v5.195c0 .56-.453 1.014-1.013 1.014H45.96v7.577c0 .56-.453 1.014-1.013 1.014H32V56.28l17.585-17.584a18.2 18.2 0 0 1-.598-4.635c0-10.007 8.112-18.12 18.119-18.12s18.12 8.113 18.12 18.12Zm-13.023.566a5.662 5.662 0 1 0 0-11.324 5.662 5.662 0 0 0 0 11.324" clip-rule="evenodd"/>
  <path fill="#f9be1a" fill-rule="evenodd" d="M88.225 34.062c0 10.007-8.112 18.12-18.12 18.12a18.1 18.1 0 0 1-5.466-.84l-3.026 3.026h-6.327v5.195c0 .56-.453 1.014-1.013 1.014H48.96v7.577c0 .56-.453 1.014-1.013 1.014H35V56.28l17.585-17.584a18.2 18.2 0 0 1-.598-4.635c0-10.007 8.112-18.12 18.119-18.12s18.12 8.113 18.12 18.12Zm-13.023.566a5.662 5.662 0 1 0 0-11.324 5.662 5.662 0 0 0 0 11.324" clip-rule="evenodd"/>
  <path fill="#e2a412" fill-rule="evenodd" d="M84.177 51.198c6.244-4.424 8.963-12.662 6.11-20.143-3.383-8.867-13.313-13.313-22.18-9.93-8.867 3.382-13.313 13.312-9.93 22.18a17.2 17.2 0 0 0 2.096 3.904l-9.638 21.525 4.356 11.419h2.734c.385 0 .737-.219.908-.564l5.824-11.768 3.013-1.149a20 20 0 0 1 1.397-4.122l-.903-2.369 3.01-1.148a20 20 0 0 1 3.924-3.957l.33-.737q.402-.024.804-.066a19.9 19.9 0 0 1 8.145-3.075m-2.136-22.17a5.37 5.37 0 1 1-10.034 3.827 5.37 5.37 0 0 1 10.034-3.827" clip-rule="evenodd"/>
  <path fill="#fc3" fill-rule="evenodd" d="M67 71v2.239a5 5 0 0 1-3.218 4.671l-5.879 2.243-4.356-11.419 9.638-21.525a17.2 17.2 0 0 1-2.097-3.905c-3.382-8.867 1.064-18.797 9.93-22.18 8.868-3.382 18.798 1.064 22.18 9.931 2.606 6.83.567 14.291-4.56 18.904-.795.716-1.856 1.021-2.922 1.107C75.417 51.89 67 60.376 67 71m17.954-41.972a5.37 5.37 0 1 1-10.035 3.828 5.37 5.37 0 0 1 10.035-3.828" clip-rule="evenodd"/>
  <path fill="#999" fill-rule="evenodd" d="M77.037 26.42C77.903 27.341 79.272 28 81 28c3.062 0 5-2.069 5-4 0-1.81-1.703-3.74-4.437-3.976a18.1 18.1 0 0 0-5.093-2.932A9.9 9.9 0 0 1 81 16c4.67 0 9 3.304 9 8s-4.33 8-9 8c-2.355 0-4.624-.84-6.294-2.276a5.37 5.37 0 0 1 2.33-3.303Z" clip-rule="evenodd"/>
  <path fill="url(#Passwords-Import-128_svg__a)" fill-rule="evenodd" d="M85 31.161A10 10 0 0 1 81 32c-2.355 0-4.624-.84-6.294-2.276a5.37 5.37 0 0 1 2.33-3.303C77.904 27.34 79.273 28 81 28c1.752 0 3.136-.678 4-1.62z" clip-rule="evenodd"/>
  <path fill="#ccc" d="M108.501 59c.298 0 .595.12.823.354.454.468.454 1.23 0 1.698l-2.333 2.4a1.145 1.145 0 0 1-1.65 0 1.226 1.226 0 0 1 0-1.698l2.332-2.4c.228-.234.525-.354.823-.354zm-1.166 10.798h3.499c.641 0 1.166.54 1.166 1.2s-.525 1.2-1.166 1.2h-3.499c-.641 0-1.166-.54-1.166-1.2s.525-1.2 1.166-1.2m-1.982 8.754c.227-.234.525-.354.822-.354h.006c.297 0 .595.12.822.354l2.333 2.4c.454.467.454 1.23 0 1.697a1.146 1.146 0 0 1-1.651 0l-2.332-2.4a1.226 1.226 0 0 1 0-1.697"/>
  <path fill="#557ff3" d="M103 71c0-8.837-7.163-16-16-16s-16 7.163-16 16 7.163 16 16 16 16-7.163 16-16"/>
  <path fill="#fff" fill-rule="evenodd" d="M89 62a1 1 0 0 1 1 1v8.978a.5.5 0 0 0 .807.394l2.89-2.247a1 1 0 0 1 1.414.19l1.8 2.399a1 1 0 0 1-.187 1.39l-8.271 6.43a2.5 2.5 0 0 1-2.906 0l-8.271-6.43a1 1 0 0 1-.186-1.39l1.8-2.4a1 1 0 0 1 1.413-.19l2.89 2.248a.5.5 0 0 0 .807-.394V63a1 1 0 0 1 1-1z" clip-rule="evenodd"/>
  <defs>
    <linearGradient id="Passwords-Import-128_svg__a" x1="78" x2="84" y1="29" y2="29" gradientUnits="userSpaceOnUse">
      <stop stop-color="#5f5f5f"/>
      <stop offset="1" stop-color="#999" stop-opacity="0"/>
    </linearGradient>
  </defs>
</svg>
